icon-svg/bulbs-classic.svg

<?xml version="1.0" encoding="UTF-8"?>
<svg width="32px" height="32px" viewBox="0 0 32 32" version="1.1" fill="#44739e" xmlns="http://www.w3.org/2000/svg" xmlns:xlink="http://www.w3.org/1999/xlink">
            <path d="M9.5732,13.208 C11.4602,13.805 14.2122,14 16.0002,14 C17.7882,14 20.5402,13.805 22.4272,13.208 C21.6592,15.226 20.3272,16.119 20.0102,18 C19.8722,18.819 19.7552,19.963 19.8332,20.801 C19.8822,21.334 19.4762,21.802 18.9432,21.856 C18.0792,21.945 17.0972,22 16.0002,22 C14.9022,22 13.9212,21.945 13.0562,21.856 C12.5232,21.802 12.1182,21.334 12.1672,20.801 C12.2452,19.963 12.1282,18.819 11.9902,18 C11.6732,16.119 10.3412,15.226 9.5732,13.208 Z M13,22.8623 C14.041,22.9633 15.187,23.0003 16,23.0003 C16.813,23.0003 17.959,22.9633 19,22.8623 L18.499,25.9703 C18.473,26.1883 18.367,26.3903 18.199,26.5433 L17.732,26.9673 C17.701,26.9963 17.672,27.0273 17.645,27.0593 L17.151,27.6423 C16.961,27.8683 16.672,28.0003 16.365,28.0003 L16,28.0003 L15.635,28.0003 C15.328,28.0003 15.039,27.8683 14.849,27.6423 L14.355,27.0593 C14.328,27.0273 14.299,26.9963 14.268,26.9673 L13.801,26.5433 C13.633,26.3903 13.527,26.1883 13.501,25.9703 L13,22.8623 Z M16,4 C19.853,4 23,7.332 23,10.5 C23,10.789 22.945,11.043 22.915,11.305 C22.884,11.561 22.841,11.775 22.788,12.012 C21.698,12.472 19.384,13 16,13 C12.616,13 10.302,12.472 9.212,12.012 C9.159,11.775 9.116,11.561 9.085,11.305 C9.055,11.043 9,10.789 9,10.5 C9,7.332 12.147,4 16,4 Z"></path>
</svg>

<svg xmlns="http://www.w3.org/2000/svg" fill="#44739e" viewBox="0 0 24 24"><path d="M9.5732 13.208c1.887.597 4.639.792 6.427.792s4.54-.195 6.427-.792c-.768 2.018-2.1 2.911-2.417 4.792-.138.819-.255 1.963-.177 2.801.049.533-.357 1.001-.89 1.055-.864.089-1.846.144-2.943.144-1.098 0-2.079-.055-2.944-.144-.533-.054-.938-.522-.889-1.055.078-.838-.039-1.982-.177-2.801-.317-1.881-1.649-2.774-2.417-4.792M13 22.8623c1.041.101 2.187.138 3 .138s1.959-.037 3-.138l-.501 3.108c-.026.218-.132.42-.3.573l-.467.424c-.031.029-.06.06-.087.092l-.494.583c-.19.226-.479.358-.786.358h-.73c-.307 0-.596-.132-.786-.358l-.494-.583a1.1 1.1 0 0 0-.087-.092l-.467-.424c-.168-.153-.274-.355-.3-.573zM16 4c3.853 0 7 3.332 7 6.5 0 .289-.055.543-.085.805-.031.256-.074.47-.127.707-1.09.46-3.404.988-6.788.988s-5.698-.528-6.788-.988c-.053-.237-.096-.451-.127-.707-.03-.262-.085-.516-.085-.805C9 7.332 12.147 4 16 4"/></svg>
